src/assets/images/f-dash.svg

<svg width="209" height="69" viewBox="0 0 209 69" fill="none" xmlns="http://www.w3.org/2000/svg">
<path d="M32.8503 0H16.4248V16.2999H32.8503V0Z" fill="white"/>
<path d="M49.2776 0H32.8521V16.2999H49.2776V0Z" fill="white"/>
<path d="M16.4256 16.2979H0V32.5977H16.4256V16.2979Z" fill="white"/>
<path d="M16.4256 0H0V16.2999H16.4256V0Z" fill="white"/>
<path d="M32.8503 32.6016H16.4248V48.9015H32.8503V32.6016Z" fill="white"/>
<path d="M16.4256 48.8984H0V65.1985H16.4256V48.8984Z" fill="white"/>
<path d="M63.8329 7.17969H62.6948V57.4609H63.8329V7.17969Z" fill="white"/>
<path d="M157.174 68.4558C156.034 68.4558 155.135 68.2404 154.476 67.8098C153.843 67.3538 153.387 66.7838 153.108 66.0998C152.855 65.3904 152.728 64.6431 152.728 63.8578V51.2798H150.22V48.0118H152.804L153.526 42.4258H156.68V48.0118H160.29V51.2798H156.68V63.4018C156.68 63.9844 156.807 64.4278 157.06 64.7318C157.314 65.0358 157.732 65.1878 158.314 65.1878H160.29V67.8478C160.037 67.9491 159.72 68.0378 159.34 68.1138C158.986 68.2151 158.618 68.2911 158.238 68.3418C157.858 68.4178 157.504 68.4558 157.174 68.4558Z" fill="white"/>
<path d="M139.641 68.4557C138.247 68.4557 137.019 68.3037 135.955 67.9997C134.891 67.6957 134.004 67.2778 133.295 66.7458C132.585 66.2138 132.041 65.5804 131.661 64.8457C131.306 64.0857 131.129 63.2497 131.129 62.3377C131.129 62.2111 131.129 62.0971 131.129 61.9958C131.154 61.8944 131.167 61.8058 131.167 61.7298H135.081C135.081 61.8058 135.081 61.8817 135.081 61.9577C135.081 62.0084 135.081 62.0718 135.081 62.1478C135.081 62.9331 135.296 63.5664 135.727 64.0477C136.157 64.5037 136.727 64.8331 137.437 65.0358C138.171 65.2131 138.969 65.3018 139.831 65.3018C140.591 65.3018 141.287 65.2131 141.921 65.0358C142.579 64.8331 143.111 64.5418 143.517 64.1618C143.947 63.7818 144.163 63.3004 144.163 62.7178C144.163 61.9578 143.897 61.3751 143.365 60.9697C142.833 60.5644 142.136 60.2477 141.275 60.0197C140.413 59.7664 139.514 59.5004 138.577 59.2217C137.741 58.9937 136.905 58.7531 136.069 58.4997C135.258 58.2211 134.523 57.8664 133.865 57.4357C133.206 57.0051 132.674 56.4604 132.269 55.8017C131.863 55.1431 131.661 54.3197 131.661 53.3317C131.661 52.3944 131.863 51.5711 132.269 50.8617C132.674 50.1524 133.231 49.5571 133.941 49.0757C134.675 48.5944 135.537 48.2271 136.525 47.9737C137.538 47.7204 138.64 47.5938 139.831 47.5938C141.072 47.5938 142.174 47.7331 143.137 48.0117C144.099 48.2651 144.91 48.6324 145.569 49.1137C146.253 49.5951 146.772 50.1777 147.127 50.8617C147.481 51.5204 147.659 52.2297 147.659 52.9897C147.659 53.1417 147.646 53.3064 147.621 53.4837C147.621 53.6357 147.621 53.7371 147.621 53.7877H143.745V53.4457C143.745 52.9391 143.605 52.4831 143.327 52.0777C143.048 51.6724 142.605 51.3431 141.997 51.0897C141.414 50.8364 140.629 50.7097 139.641 50.7097C138.982 50.7097 138.399 50.7731 137.893 50.8997C137.386 51.0011 136.968 51.1531 136.639 51.3557C136.309 51.5584 136.056 51.7991 135.879 52.0777C135.727 52.3564 135.651 52.6731 135.651 53.0277C135.651 53.6104 135.853 54.0664 136.259 54.3957C136.689 54.6997 137.247 54.9657 137.931 55.1937C138.615 55.3964 139.349 55.6244 140.135 55.8777C141.047 56.1311 141.971 56.3971 142.909 56.6757C143.846 56.9291 144.707 57.2584 145.493 57.6637C146.303 58.0691 146.949 58.6264 147.431 59.3357C147.937 60.0451 148.191 60.9951 148.191 62.1857C148.191 63.2751 147.975 64.2251 147.545 65.0358C147.114 65.8464 146.506 66.5051 145.721 67.0117C144.961 67.4931 144.061 67.8477 143.023 68.0757C141.984 68.3291 140.857 68.4557 139.641 68.4557Z" fill="white"/>
<path d="M119.512 68.4557C117.46 68.4557 115.737 68.0883 114.344 67.3537C112.976 66.5937 111.937 65.441 111.228 63.8957C110.518 62.3503 110.164 60.387 110.164 58.0057C110.164 55.599 110.518 53.6357 111.228 52.1157C111.937 50.5703 112.988 49.4303 114.382 48.6957C115.775 47.9357 117.51 47.5557 119.588 47.5557C121.488 47.5557 123.071 47.923 124.338 48.6577C125.63 49.367 126.605 50.4563 127.264 51.9257C127.922 53.395 128.252 55.2443 128.252 57.4737V58.9937H114.23C114.28 60.4123 114.496 61.603 114.876 62.5657C115.256 63.503 115.826 64.1997 116.586 64.6557C117.371 65.0863 118.359 65.3017 119.55 65.3017C120.284 65.3017 120.943 65.213 121.526 65.0357C122.108 64.833 122.602 64.5543 123.008 64.1997C123.413 63.8197 123.73 63.3763 123.958 62.8697C124.186 62.3377 124.3 61.7423 124.3 61.0837H128.176C128.176 62.2743 127.973 63.3257 127.568 64.2377C127.162 65.1497 126.567 65.9223 125.782 66.5557C125.022 67.1637 124.11 67.6323 123.046 67.9617C121.982 68.291 120.804 68.4557 119.512 68.4557ZM114.306 56.1057H124.11C124.11 55.1177 123.996 54.2943 123.768 53.6357C123.565 52.9517 123.261 52.3943 122.856 51.9637C122.45 51.533 121.969 51.229 121.412 51.0517C120.854 50.849 120.221 50.7477 119.512 50.7477C118.448 50.7477 117.536 50.9377 116.776 51.3177C116.041 51.6977 115.471 52.293 115.066 53.1037C114.66 53.889 114.407 54.8897 114.306 56.1057Z" fill="white"/>
<path d="M85.0779 67.9996V41.9316H98.9099C100.354 41.9316 101.621 42.1976 102.71 42.7296C103.799 43.2363 104.648 43.971 105.256 44.9336C105.889 45.8963 106.206 47.0236 106.206 48.3156C106.206 49.3036 106.016 50.203 105.636 51.0136C105.281 51.8243 104.775 52.5083 104.116 53.0656C103.483 53.623 102.761 54.041 101.95 54.3196V54.4716C102.887 54.6743 103.723 55.0543 104.458 55.6116C105.218 56.1436 105.813 56.853 106.244 57.7396C106.7 58.601 106.928 59.6396 106.928 60.8556C106.928 62.5023 106.561 63.8576 105.826 64.9216C105.117 65.9856 104.167 66.771 102.976 67.2776C101.785 67.759 100.43 67.9996 98.9099 67.9996H85.0779ZM89.3339 64.3516H98.5679C99.7332 64.3516 100.683 64.0476 101.418 63.4396C102.178 62.8063 102.558 61.793 102.558 60.3996C102.558 59.5636 102.393 58.8543 102.064 58.2716C101.76 57.6636 101.291 57.2076 100.658 56.9036C100.025 56.5743 99.2265 56.4096 98.2639 56.4096H89.3339V64.3516ZM89.3339 52.8376H97.9219C98.7325 52.8376 99.4292 52.6856 100.012 52.3816C100.595 52.0776 101.038 51.647 101.342 51.0896C101.671 50.5323 101.836 49.9116 101.836 49.2276C101.836 47.9863 101.494 47.0743 100.81 46.4916C100.151 45.8836 99.2772 45.5796 98.1879 45.5796H89.3339V52.8376Z" fill="white"/>
<path d="M199.647 29.4558C198.253 29.4558 197.025 29.3038 195.961 28.9998C194.897 28.6958 194.01 28.2778 193.301 27.7458C192.591 27.2138 192.047 26.5804 191.667 25.8458C191.312 25.0858 191.135 24.2497 191.135 23.3377C191.135 23.2111 191.135 23.0971 191.135 22.9958C191.16 22.8944 191.173 22.8057 191.173 22.7297H195.087C195.087 22.8057 195.087 22.8818 195.087 22.9578C195.087 23.0084 195.087 23.0717 195.087 23.1477C195.087 23.9331 195.302 24.5664 195.733 25.0478C196.163 25.5038 196.733 25.8331 197.443 26.0357C198.177 26.2131 198.975 26.3018 199.837 26.3018C200.597 26.3018 201.293 26.2131 201.927 26.0357C202.585 25.8331 203.117 25.5418 203.523 25.1618C203.953 24.7818 204.169 24.3004 204.169 23.7178C204.169 22.9578 203.903 22.3751 203.371 21.9697C202.839 21.5644 202.142 21.2478 201.281 21.0198C200.419 20.7664 199.52 20.5004 198.583 20.2218C197.747 19.9938 196.911 19.7531 196.075 19.4998C195.264 19.2211 194.529 18.8664 193.871 18.4357C193.212 18.0051 192.68 17.4604 192.275 16.8018C191.869 16.1431 191.667 15.3197 191.667 14.3317C191.667 13.3944 191.869 12.5711 192.275 11.8617C192.68 11.1524 193.237 10.5571 193.947 10.0757C194.681 9.59442 195.543 9.22708 196.531 8.97375C197.544 8.72042 198.646 8.59375 199.837 8.59375C201.078 8.59375 202.18 8.73308 203.143 9.01175C204.105 9.26508 204.916 9.63242 205.575 10.1137C206.259 10.5951 206.778 11.1777 207.133 11.8617C207.487 12.5204 207.665 13.2297 207.665 13.9897C207.665 14.1417 207.652 14.3064 207.627 14.4837C207.627 14.6357 207.627 14.7371 207.627 14.7878H203.751V14.4457C203.751 13.9391 203.611 13.4831 203.333 13.0777C203.054 12.6724 202.611 12.3431 202.003 12.0897C201.42 11.8364 200.635 11.7097 199.647 11.7097C198.988 11.7097 198.405 11.7731 197.899 11.8997C197.392 12.0011 196.974 12.1531 196.645 12.3557C196.315 12.5584 196.062 12.7991 195.885 13.0777C195.733 13.3564 195.657 13.6731 195.657 14.0278C195.657 14.6104 195.859 15.0664 196.265 15.3958C196.695 15.6997 197.253 15.9658 197.937 16.1938C198.621 16.3964 199.355 16.6244 200.141 16.8778C201.053 17.1311 201.977 17.3971 202.915 17.6758C203.852 17.9291 204.713 18.2584 205.499 18.6637C206.309 19.0691 206.955 19.6264 207.437 20.3357C207.943 21.0451 208.197 21.9951 208.197 23.1857C208.197 24.2751 207.981 25.2251 207.551 26.0357C207.12 26.8464 206.512 27.5051 205.727 28.0117C204.967 28.4931 204.067 28.8478 203.029 29.0758C201.99 29.3291 200.863 29.4558 199.647 29.4558Z" fill="white"/>
<path d="M184.741 13.1916V11.4436C185.299 11.3423 185.755 11.1016 186.109 10.7216C186.464 10.3163 186.717 9.82231 186.869 9.23964C187.021 8.65697 187.097 8.02364 187.097 7.33964H185.083V2.93164H189.339V6.92164C189.339 8.36564 189.111 9.53097 188.655 10.4176C188.199 11.279 187.617 11.925 186.907 12.3556C186.223 12.761 185.501 13.0396 184.741 13.1916Z" fill="white"/>
<path d="M169.613 29.4564C167.992 29.4564 166.586 29.089 165.395 28.3544C164.205 27.6197 163.28 26.4797 162.621 24.9344C161.988 23.389 161.671 21.3877 161.671 18.9304C161.671 16.5237 162.001 14.5604 162.659 13.0404C163.318 11.5204 164.23 10.393 165.395 9.65837C166.561 8.9237 167.903 8.55637 169.423 8.55637C170.31 8.55637 171.133 8.6577 171.893 8.86037C172.653 9.06303 173.325 9.3797 173.907 9.81037C174.515 10.241 175.022 10.7857 175.427 11.4444H175.693V1.52637H179.645V29.0004H176.415L176.035 26.2644H175.769C175.111 27.3284 174.237 28.1264 173.147 28.6584C172.083 29.1904 170.905 29.4564 169.613 29.4564ZM170.715 26.0364C171.881 26.0364 172.818 25.783 173.527 25.2764C174.262 24.7444 174.807 23.9844 175.161 22.9964C175.516 21.983 175.693 20.7544 175.693 19.3104V18.7784C175.693 17.5624 175.579 16.5237 175.351 15.6624C175.123 14.801 174.794 14.1044 174.363 13.5724C173.933 13.015 173.413 12.6097 172.805 12.3564C172.197 12.103 171.513 11.9764 170.753 11.9764C169.588 11.9764 168.638 12.217 167.903 12.6984C167.169 13.1544 166.624 13.8764 166.269 14.8644C165.94 15.8524 165.775 17.1317 165.775 18.7024V19.3864C165.775 20.957 165.953 22.2364 166.307 23.2244C166.662 24.187 167.194 24.8964 167.903 25.3524C168.638 25.8084 169.575 26.0364 170.715 26.0364Z" fill="white"/>
<path d="M153.681 29.0004V1.52637H157.633V29.0004H153.681Z" fill="white"/>
<path d="M140.544 28.9997V9.01167H143.812L144.154 12.2417H144.382C144.61 11.6083 144.901 11.013 145.256 10.4557C145.636 9.89833 146.117 9.44233 146.7 9.08766C147.308 8.733 148.043 8.55566 148.904 8.55566C149.309 8.55566 149.664 8.59366 149.968 8.66967C150.297 8.74567 150.551 8.809 150.728 8.85966V12.5837H149.398C148.587 12.5837 147.865 12.7103 147.232 12.9637C146.624 13.217 146.105 13.597 145.674 14.1037C145.269 14.585 144.965 15.1803 144.762 15.8897C144.585 16.599 144.496 17.397 144.496 18.2837V28.9997H140.544Z" fill="white"/>
<path d="M126.902 29.4557C124.824 29.4557 123.064 29.0883 121.62 28.3537C120.201 27.5937 119.124 26.441 118.39 24.8957C117.68 23.3503 117.326 21.387 117.326 19.0057C117.326 16.599 117.68 14.6357 118.39 13.1157C119.124 11.5703 120.201 10.4303 121.62 9.69567C123.064 8.93566 124.824 8.55566 126.902 8.55566C129.03 8.55566 130.803 8.93566 132.222 9.69567C133.64 10.4303 134.704 11.5703 135.414 13.1157C136.148 14.6357 136.516 16.599 136.516 19.0057C136.516 21.387 136.148 23.3503 135.414 24.8957C134.704 26.441 133.64 27.5937 132.222 28.3537C130.803 29.0883 129.03 29.4557 126.902 29.4557ZM126.902 26.1877C128.168 26.1877 129.207 25.947 130.018 25.4657C130.828 24.959 131.424 24.199 131.804 23.1857C132.209 22.1723 132.412 20.893 132.412 19.3477V18.6637C132.412 17.1183 132.209 15.839 131.804 14.8257C131.424 13.8123 130.828 13.065 130.018 12.5837C129.207 12.077 128.168 11.8237 126.902 11.8237C125.66 11.8237 124.634 12.077 123.824 12.5837C123.013 13.065 122.405 13.8123 122 14.8257C121.62 15.839 121.43 17.1183 121.43 18.6637V19.3477C121.43 20.893 121.62 22.1723 122 23.1857C122.405 24.199 123.013 24.959 123.824 25.4657C124.634 25.947 125.66 26.1877 126.902 26.1877Z" fill="white"/>
<path d="M89.6 28.9996L82.418 2.93164H86.94L91.386 20.1076C91.462 20.3863 91.5506 20.7663 91.652 21.2476C91.7533 21.729 91.842 22.2356 91.918 22.7676C92.0193 23.2743 92.108 23.743 92.184 24.1736H92.412C92.488 23.8443 92.5513 23.4896 92.602 23.1096C92.6526 22.7296 92.716 22.3496 92.792 21.9696C92.868 21.5896 92.9313 21.235 92.982 20.9056C93.058 20.5763 93.1086 20.3103 93.134 20.1076L97.238 2.93164H102.71L106.852 20.1076C106.928 20.3863 107.017 20.7663 107.118 21.2476C107.219 21.729 107.308 22.2356 107.384 22.7676C107.485 23.2743 107.574 23.743 107.65 24.1736H107.878C107.929 23.8696 107.992 23.5276 108.068 23.1476C108.144 22.7676 108.22 22.4003 108.296 22.0456C108.372 21.6656 108.448 21.311 108.524 20.9816C108.625 20.6523 108.701 20.361 108.752 20.1076L113.198 2.93164H117.226L110.044 28.9996H105.066L100.696 11.5956C100.62 11.2156 100.531 10.785 100.43 10.3036C100.329 9.79698 100.227 9.29031 100.126 8.78364C100.05 8.25164 99.9866 7.79564 99.936 7.41564H99.746C99.6953 7.82097 99.632 8.28964 99.556 8.82164C99.48 9.35364 99.3913 9.87297 99.29 10.3796C99.1886 10.861 99.1 11.2663 99.024 11.5956L94.73 28.9996H89.6Z" fill="white"/>
</svg>

<svg xmlns="http://www.w3.org/2000/svg" width="209" height="69" fill="none" viewBox="0 0 209 69"><path fill="#fff" d="M32.85 0H16.425v16.3H32.85zm16.428 0H32.852v16.3h16.426z"/><path fill="#fff" d="M16.426 16.298H0v16.3h16.426z"/><path fill="#fff" d="M16.426 0H0v16.3h16.426zM32.85 32.602H16.425v16.3H32.85z"/><path fill="#fff" d="M16.426 48.898H0v16.3h16.426zM63.833 7.18h-1.138v50.28h1.138zm93.341 61.276q-1.71 0-2.698-.646a3.9 3.9 0 0 1-1.368-1.71 6.6 6.6 0 0 1-.38-2.242V51.28h-2.508v-3.268h2.584l.722-5.586h3.154v5.586h3.61v3.268h-3.61v12.122q0 .874.38 1.33.381.456 1.254.456h1.976v2.66q-.38.152-.95.266a8 8 0 0 1-1.102.228q-.57.114-1.064.114m-17.533 0q-2.09 0-3.686-.456t-2.66-1.254a5.55 5.55 0 0 1-1.634-1.9q-.532-1.14-.532-2.508v-.342q.038-.152.038-.266h3.914v.418q0 1.177.646 1.9.645.684 1.71.988 1.101.266 2.394.266a7.7 7.7 0 0 0 2.09-.266q.987-.304 1.596-.874.645-.57.646-1.444 0-1.14-.798-1.748t-2.09-.95l-2.698-.798a93 93 0 0 1-2.508-.722 10 10 0 0 1-2.204-1.064 5.2 5.2 0 0 1-1.596-1.634q-.608-.988-.608-2.47 0-1.406.608-2.47a5.34 5.34 0 0 1 1.672-1.786q1.102-.723 2.584-1.102 1.52-.38 3.306-.38 1.862 0 3.306.418 1.443.38 2.432 1.102 1.026.722 1.558 1.748.532.987.532 2.128 0 .227-.038.494v.304h-3.876v-.342q0-.76-.418-1.368t-1.33-.988q-.874-.38-2.356-.38-.989 0-1.748.19-.76.151-1.254.456a2.3 2.3 0 0 0-.76.722 1.95 1.95 0 0 0-.228.95q0 .873.608 1.368.645.456 1.672.798 1.025.303 2.204.684 1.368.38 2.774.798 1.405.38 2.584.988 1.215.607 1.938 1.672.76 1.065.76 2.85 0 1.635-.646 2.85a5.26 5.26 0 0 1-1.824 1.976q-1.14.722-2.698 1.064-1.558.38-3.382.38m-20.129 0q-3.078 0-5.168-1.102-2.052-1.14-3.116-3.458t-1.064-5.89q0-3.61 1.064-5.89 1.063-2.319 3.154-3.42 2.09-1.14 5.206-1.14 2.85 0 4.75 1.102 1.938 1.063 2.926 3.268.987 2.203.988 5.548v1.52H114.23q.076 2.127.646 3.572.57 1.406 1.71 2.09 1.177.646 2.964.646 1.101 0 1.976-.266a4.5 4.5 0 0 0 1.482-.836q.608-.57.95-1.33.342-.798.342-1.786h3.876q0 1.786-.608 3.154a6.16 6.16 0 0 1-1.786 2.318q-1.14.911-2.736 1.406t-3.534.494m-5.206-12.35h9.804q0-1.483-.342-2.47-.304-1.026-.912-1.672a3.35 3.35 0 0 0-1.444-.912q-.837-.304-1.9-.304-1.596 0-2.736.57-1.103.57-1.71 1.786-.609 1.178-.76 3.002M85.078 68V41.932H98.91q2.166 0 3.8.798 1.634.76 2.546 2.204.95 1.444.95 3.382 0 1.482-.57 2.698a5.6 5.6 0 0 1-1.52 2.052 6.4 6.4 0 0 1-2.166 1.254v.152a6.3 6.3 0 0 1 2.508 1.14q1.14.798 1.786 2.128.684 1.292.684 3.116 0 2.47-1.102 4.066a6.33 6.33 0 0 1-2.85 2.356Q101.19 68 98.91 68zm4.256-3.648h9.234q1.748 0 2.85-.912 1.14-.95 1.14-3.04 0-1.255-.494-2.128a2.95 2.95 0 0 0-1.406-1.368q-.95-.495-2.394-.494h-8.93zm0-11.514h8.588q1.215 0 2.09-.456a3.1 3.1 0 0 0 1.33-1.292 3.6 3.6 0 0 0 .494-1.862q0-1.863-1.026-2.736-.989-.912-2.622-.912h-8.854zm110.313-23.382q-2.09 0-3.686-.456t-2.66-1.254a5.55 5.55 0 0 1-1.634-1.9q-.532-1.14-.532-2.508v-.342q.038-.153.038-.266h3.914v.418q0 1.177.646 1.9.645.684 1.71.988a10.2 10.2 0 0 0 2.394.266q1.14 0 2.09-.266.987-.304 1.596-.874.645-.57.646-1.444 0-1.14-.798-1.748t-2.09-.95a912 912 0 0 1-2.698-.798 93 93 0 0 1-2.508-.722 10 10 0 0 1-2.204-1.064 5.2 5.2 0 0 1-1.596-1.634q-.609-.988-.608-2.47 0-1.406.608-2.47a5.34 5.34 0 0 1 1.672-1.786q1.101-.723 2.584-1.102 1.52-.38 3.306-.38 1.862 0 3.306.418 1.443.38 2.432 1.102 1.026.722 1.558 1.748.532.988.532 2.128 0 .227-.038.494v.304h-3.876v-.342q0-.76-.418-1.368t-1.33-.988q-.874-.38-2.356-.38-.989 0-1.748.19-.76.152-1.254.456a2.3 2.3 0 0 0-.76.722 1.95 1.95 0 0 0-.228.95q0 .873.608 1.368.646.456 1.672.798 1.026.303 2.204.684 1.368.38 2.774.798 1.405.38 2.584.988 1.215.607 1.938 1.672.76 1.065.76 2.85 0 1.635-.646 2.85a5.26 5.26 0 0 1-1.824 1.976q-1.14.722-2.698 1.064-1.558.38-3.382.38m-14.906-16.264v-1.748q.837-.152 1.368-.722.532-.609.76-1.482a7.5 7.5 0 0 0 .228-1.9h-2.014V2.932h4.256v3.99q0 2.166-.684 3.496-.684 1.292-1.748 1.938a6.9 6.9 0 0 1-2.166.836m-15.128 16.264q-2.431 0-4.218-1.102-1.785-1.101-2.774-3.42-.95-2.317-.95-6.004 0-3.61.988-5.89t2.736-3.382 4.028-1.102q1.33 0 2.47.304 1.14.305 2.014.95.912.647 1.52 1.634h.266V1.526h3.952V29h-3.23l-.38-2.736h-.266q-.987 1.596-2.622 2.394-1.596.798-3.534.798m1.102-3.42q1.749 0 2.812-.76 1.103-.798 1.634-2.28.532-1.52.532-3.686v-.532q0-1.824-.342-3.116t-.988-2.09a3.8 3.8 0 0 0-1.558-1.216q-.912-.38-2.052-.38-1.748 0-2.85.722-1.101.684-1.634 2.166-.494 1.482-.494 3.838v.684q0 2.356.532 3.838.532 1.444 1.596 2.128 1.102.684 2.812.684M153.681 29V1.526h3.952V29zm-13.137 0V9.012h3.268l.342 3.23h.228a9 9 0 0 1 .874-1.786 4.65 4.65 0 0 1 1.444-1.368q.912-.532 2.204-.532.608 0 1.064.114.494.114.76.19v3.724h-1.33q-1.216 0-2.166.38a4.1 4.1 0 0 0-1.558 1.14q-.607.721-.912 1.786-.266 1.064-.266 2.394V29zm-13.642.456q-3.117 0-5.282-1.102-2.129-1.14-3.23-3.458-1.064-2.319-1.064-5.89 0-3.61 1.064-5.89 1.101-2.319 3.23-3.42 2.165-1.14 5.282-1.14 3.192 0 5.32 1.14 2.127 1.101 3.192 3.42 1.102 2.28 1.102 5.89 0 3.571-1.102 5.89-1.065 2.318-3.192 3.458-2.128 1.101-5.32 1.102m0-3.268q1.9 0 3.116-.722 1.216-.76 1.786-2.28.608-1.52.608-3.838v-.684q0-2.319-.608-3.838-.57-1.52-1.786-2.242-1.217-.76-3.116-.76-1.863 0-3.078.76-1.216.721-1.824 2.242-.57 1.52-.57 3.838v.684q0 2.317.57 3.838.608 1.52 1.824 2.28 1.215.722 3.078.722M89.6 29 82.418 2.932h4.522l4.446 17.176q.114.417.266 1.14t.266 1.52q.152.76.266 1.406h.228q.114-.495.19-1.064t.19-1.14q.114-.57.19-1.064a8 8 0 0 0 .152-.798l4.104-17.176h5.472l4.142 17.176q.114.417.266 1.14t.266 1.52q.152.76.266 1.406h.228q.076-.456.19-1.026t.228-1.102q.114-.57.228-1.064.151-.495.228-.874l4.446-17.176h4.028L110.044 29h-4.978l-4.37-17.404q-.114-.57-.266-1.292l-.304-1.52q-.114-.798-.19-1.368h-.19q-.076.608-.19 1.406a29 29 0 0 1-.266 1.558q-.152.721-.266 1.216L94.73 29z"/></svg>
